apps/www/public/images/launchweek/lwx/day3/branching.svg

<svg width="765" height="208" viewBox="0 0 765 208" fill="none" xmlns="http://www.w3.org/2000/svg">
<g clip-path="url(#clip0_1006_6991)">
<rect width="764" height="208" transform="translate(0.517578)" fill="#121516"/>
<path d="M407.665 37.8906H897.497" stroke="#575E61" stroke-width="0.5" stroke-linecap="round"/>
<path d="M468.754 37.8907H493.055C502.015 37.8907 510.506 41.8956 516.205 48.8098L528.075 63.2104C534.154 70.5855 543.211 74.8574 552.768 74.8574L585.052 74.8574" stroke="#575E61" stroke-width="0.5" stroke-linecap="round"/>
<path d="M468.505 37.8903H487.321C494.63 37.8903 501.462 41.5201 505.552 47.577L533.651 89.1809C539.36 97.633 548.893 102.698 559.092 102.698H813.682" stroke="#575E61" stroke-width="0.5" stroke-linecap="round"/>
<path d="M564.505 102.698H582.018C590.033 102.698 597.413 107.057 601.283 114.075L630.027 166.204C635.427 175.998 645.726 182.08 656.911 182.08H909.682" stroke="#575E61" stroke-width="0.5" stroke-linecap="round"/>
<path d="M564.505 102.698H582.018C590.033 102.698 597.413 107.057 601.283 114.075L607.586 125.506" stroke="url(#paint0_linear_1006_6991)" stroke-width="0.5" stroke-linecap="round"/>
<rect x="583.838" y="65.001" width="125.134" height="19.7929" rx="9.89647" fill="#191D1E"/>
<rect x="583.838" y="65.001" width="125.134" height="19.7929" rx="9.89647" stroke="#172021" stroke-width="0.5"/>
<path d="M610.36 77.3975V71.8075H613.875V72.629H611.334V74.2298H613.494V75.0514H611.334V77.3975H610.36ZM615.718 77.3975V71.8075H619.25V72.629H616.692V74.0773H618.861V74.8989H616.692V76.5674H619.335V77.3975H615.718ZM620.509 77.3975L622.305 71.8075H623.448L625.244 77.3975H624.21L623.778 75.8729H621.94L621.5 77.3975H620.509ZM622.152 75.1022H623.567L623.372 74.4077C623.202 73.8148 623.033 73.188 622.872 72.5697H622.838C622.686 73.188 622.516 73.8148 622.347 74.4077L622.152 75.1022ZM627.883 77.3975V72.629H626.147V71.8075H630.61V72.629H628.865V77.3975H627.883ZM631.649 77.7108L635.274 71.384H636.112L632.479 77.7108H631.649ZM637.472 77.3975V71.8075H638.463L639.954 74.9751L640.471 76.1609H640.496C640.454 75.5849 640.361 74.882 640.361 74.2637V71.8075H641.292V77.3975H640.293L638.811 74.2213L638.294 73.044H638.269C638.311 73.6369 638.404 74.306 638.404 74.9243V77.3975H637.472ZM643.228 77.3975V71.8075H646.76V72.629H644.203V74.0773H646.371V74.8989H644.203V76.5674H646.845V77.3975H643.228ZM648.697 77.3975L647.9 71.799H648.891L649.205 75.0514C649.222 75.5257 649.256 75.9915 649.281 76.4573H649.306C649.408 75.9915 649.527 75.5172 649.628 75.0514L650.111 73.2388H650.738L651.212 75.0514C651.305 75.5087 651.432 75.983 651.534 76.4573H651.568L651.644 75.0514L651.941 71.799H652.864L652.11 77.3975H651.068L650.577 75.3309C650.509 74.9921 650.441 74.6279 650.399 74.2975H650.374C650.323 74.6279 650.264 74.9921 650.187 75.3309L649.721 77.3975H648.697ZM654.004 74.9497V74.2467H657.773V74.9497H654.004ZM659.447 77.3975V71.8075H660.488L661.259 73.9926L661.53 74.8311H661.564L661.818 73.9926L662.589 71.8075H663.631V77.3975H662.801V74.882C662.801 74.3484 662.877 73.2981 662.928 72.773H662.894L662.47 74.1366L661.767 75.8899H661.293L660.581 74.1366L660.158 72.773H660.133C660.175 73.2981 660.26 74.3484 660.26 74.882V77.3975H659.447ZM665.534 77.3975V71.8075H669.066V72.629H666.508V74.0773H668.677V74.8989H666.508V76.5674H669.151V77.3975H665.534ZM670.748 77.3975V71.8075H671.79L672.561 73.9926L672.832 74.8311H672.866L673.12 73.9926L673.891 71.8075H674.932V77.3975H674.102V74.882C674.102 74.3484 674.179 73.2981 674.229 72.773H674.195L673.772 74.1366L673.069 75.8899H672.595L671.883 74.1366L671.46 72.773H671.434C671.477 73.2981 671.561 74.3484 671.561 74.882V77.3975H670.748ZM676.743 77.3975V71.8075H678.369C679.504 71.8075 680.334 72.1547 680.334 73.1795C680.334 73.7047 680.021 74.2213 679.368 74.3992V74.4331C680.173 74.5686 680.614 74.9921 680.614 75.7543C680.614 76.8723 679.724 77.3975 678.513 77.3975H676.743ZM677.717 74.1282H678.276C679.055 74.1282 679.377 73.8232 679.377 73.2981C679.377 72.7815 679.021 72.5697 678.301 72.5697H677.717V74.1282ZM677.717 76.6352H678.411C679.225 76.6352 679.656 76.3303 679.656 75.695C679.656 75.0937 679.241 74.8311 678.411 74.8311H677.717V76.6352ZM682.338 77.3975V71.8075H685.87V72.629H683.312V74.0773H685.48V74.8989H683.312V76.5674H685.955V77.3975H682.338ZM687.671 77.3975V71.8075H689.517C690.66 71.8075 691.55 72.214 691.55 73.459C691.55 74.306 691.109 74.8227 690.44 75.0514L691.77 77.3975H690.669L689.466 75.2038H688.645V77.3975H687.671ZM688.645 74.4161H689.415C690.178 74.4161 690.584 74.0943 690.584 73.459C690.584 72.8069 690.178 72.5867 689.415 72.5867H688.645V74.4161ZM695.011 77.4991C694.231 77.4991 693.495 77.2027 692.952 76.6775L693.52 76.0084C693.935 76.3896 694.485 76.6521 695.028 76.6521C695.714 76.6521 696.061 76.3642 696.061 75.9153C696.061 75.4494 695.688 75.3054 695.138 75.0852L694.384 74.7549C693.791 74.5262 693.19 74.0858 693.19 73.2727C693.19 72.3834 693.986 71.7058 695.112 71.7058C695.798 71.7058 696.434 71.9684 696.891 72.4173L696.383 73.0356C696.01 72.7307 695.629 72.5528 695.112 72.5528C694.536 72.5528 694.181 72.7984 694.181 73.2219C694.181 73.6623 694.629 73.8148 695.129 74.018L695.858 74.3314C696.561 74.6194 697.06 75.0259 697.06 75.839C697.06 76.7453 696.306 77.4991 695.011 77.4991Z" fill="#EDEDED"/>
<path d="M595.233 70.3101V76.0742" stroke="#575E61" stroke-width="0.705809" stroke-linecap="round" stroke-linejoin="round"/>
<path d="M600.88 73.1921C601.659 73.1921 602.291 72.5469 602.291 71.7511C602.291 70.9552 601.659 70.3101 600.88 70.3101C600.1 70.3101 599.468 70.9552 599.468 71.7511C599.468 72.5469 600.1 73.1921 600.88 73.1921Z" stroke="#575E61" stroke-width="0.705809" stroke-linecap="round" stroke-linejoin="round"/>
<path d="M595.233 78.9563C596.013 78.9563 596.645 78.3111 596.645 77.5152C596.645 76.7194 596.013 76.0742 595.233 76.0742C594.454 76.0742 593.822 76.7194 593.822 77.5152C593.822 78.3111 594.454 78.9563 595.233 78.9563Z" stroke="#575E61" stroke-width="0.705809" stroke-linecap="round" stroke-linejoin="round"/>
<path d="M600.88 73.1924C600.88 74.3389 600.434 75.4385 599.64 76.2493C598.845 77.06 597.768 77.5155 596.645 77.5155" stroke="#575E61" stroke-width="0.705809" stroke-linecap="round" stroke-linejoin="round"/>
<path d="M468.505 37.8903H487.321C494.63 37.8903 501.462 41.5201 505.552 47.577L533.651 89.1809C539.36 97.633 548.893 102.698 559.092 102.698H678.231" stroke="url(#paint1_linear_1006_6991)" stroke-width="0.5" stroke-linecap="round"/>
<path d="M458.018 37.8907H493.055C502.015 37.8907 510.506 41.8956 516.205 48.8098L528.075 63.2104C534.154 70.5855 543.211 74.8574 552.768 74.8574H559.823" stroke="url(#paint2_linear_1006_6991)" stroke-width="0.5" stroke-linecap="round"/>
<rect x="402.768" y="28.25" width="59.5" height="19.5" rx="9.75" fill="#191D1E"/>
<rect x="402.768" y="28.25" width="59.5" height="19.5" rx="9.75" stroke="#172021" stroke-width="0.5"/>
<path d="M429.885 40.5V34.91H430.927L431.697 37.0952L431.968 37.9337H432.002L432.256 37.0952L433.027 34.91H434.069V40.5H433.239V37.9845C433.239 37.4509 433.315 36.4007 433.366 35.8755H433.332L432.908 37.2392L432.206 38.9924H431.731L431.02 37.2392L430.596 35.8755H430.571C430.613 36.4007 430.698 37.4509 430.698 37.9845V40.5H429.885ZM435.261 40.5L437.057 34.91H438.2L439.996 40.5H438.962L438.53 38.9755H436.692L436.252 40.5H435.261ZM436.904 38.2047H438.319L438.124 37.5102C437.954 36.9173 437.785 36.2906 437.624 35.6723H437.59C437.438 36.2906 437.268 36.9173 437.099 37.5102L436.904 38.2047ZM441.305 40.5V39.67H442.635V35.7316H441.305V34.91H444.956V35.7316H443.617V39.67H444.956V40.5H441.305ZM446.722 40.5V34.91H447.713L449.204 38.0777L449.721 39.2634H449.746C449.704 38.6875 449.611 37.9845 449.611 37.3662V34.91H450.542V40.5H449.543L448.061 37.3239L447.544 36.1466H447.519C447.561 36.7394 447.654 37.4086 447.654 38.0268V40.5H446.722Z" fill="#EDEDED"/>
<g clip-path="url(#clip1_1006_6991)">
<path d="M416.164 42.6933C416.164 42.6933 419.929 40.7719 419.929 37.8899V34.5275L416.164 33.0864L412.4 34.5275V37.8899C412.4 40.7719 416.164 42.6933 416.164 42.6933Z" stroke="#575E61" stroke-width="0.705809" stroke-linecap="round" stroke-linejoin="round"/>
</g>
</g>
<defs>
<linearGradient id="paint0_linear_1006_6991" x1="607.586" y1="114.103" x2="571.442" y2="102.699" gradientUnits="userSpaceOnUse">
<stop stop-color="white"/>
<stop offset="1" stop-color="white" stop-opacity="0"/>
</linearGradient>
<linearGradient id="paint1_linear_1006_6991" x1="678.231" y1="102.698" x2="515.289" y2="70.2944" gradientUnits="userSpaceOnUse">
<stop stop-color="white"/>
<stop offset="1" stop-color="white" stop-opacity="0"/>
</linearGradient>
<linearGradient id="paint2_linear_1006_6991" x1="557.42" y1="74.8574" x2="378.33" y2="18.0207" gradientUnits="userSpaceOnUse">
<stop stop-color="white"/>
<stop offset="1" stop-color="#53595C"/>
</linearGradient>
<clipPath id="clip0_1006_6991">
<rect width="764" height="208" fill="white" transform="translate(0.517578)"/>
</clipPath>
<clipPath id="clip1_1006_6991">
<rect width="11.2929" height="11.5282" fill="white" transform="translate(410.518 32.126)"/>
</clipPath>
</defs>
</svg>

<svg xmlns="http://www.w3.org/2000/svg" width="765" height="208" fill="none" viewBox="0 0 765 208"><g clip-path="url(#a)"><path fill="#121516" d="M.518 0h764v208h-764z"/><path stroke="#575e61" stroke-linecap="round" stroke-width=".5" d="M407.665 37.89h489.832M468.754 37.89h24.301a30 30 0 0 1 23.15 10.92l11.87 14.4a32 32 0 0 0 24.693 11.647h32.284"/><path stroke="#575e61" stroke-linecap="round" stroke-width=".5" d="M468.505 37.89h18.816c7.309 0 14.141 3.63 18.231 9.687l28.099 41.604a30.7 30.7 0 0 0 25.441 13.517h254.59M564.505 102.698h17.513a22 22 0 0 1 19.265 11.377l28.744 52.129a30.7 30.7 0 0 0 26.884 15.876h252.771"/><path stroke="url(#b)" stroke-linecap="round" stroke-width=".5" d="M564.505 102.698h17.513a22 22 0 0 1 19.265 11.377l6.303 11.431"/><rect width="125.134" height="19.793" x="583.838" y="65.001" fill="#191d1e" rx="9.896"/><rect width="125.134" height="19.793" x="583.838" y="65.001" stroke="#172021" stroke-width=".5" rx="9.896"/><path fill="#ededed" d="M610.36 77.398v-5.59h3.515v.821h-2.541v1.6h2.16v.822h-2.16v2.346zm5.358 0v-5.59h3.532v.821h-2.558v1.448h2.169v.822h-2.169v1.668h2.643v.83zm4.791 0 1.796-5.59h1.143l1.796 5.59h-1.034l-.432-1.525h-1.838l-.44 1.524zm1.643-2.296h1.415l-.195-.694c-.17-.593-.339-1.22-.5-1.838h-.034a53 53 0 0 1-.491 1.838zm5.731 2.295V72.63h-1.736v-.822h4.463v.822h-1.745v4.768zm3.766.314 3.625-6.327h.838l-3.633 6.327zm5.823-.314v-5.59h.991l1.491 3.168.517 1.186h.025c-.042-.576-.135-1.279-.135-1.897v-2.456h.931v5.59h-.999l-1.482-3.177-.517-1.177h-.025c.042.593.135 1.262.135 1.88v2.473zm5.756 0v-5.59h3.532v.822h-2.557v1.448h2.168v.822h-2.168v1.668h2.642v.83zm5.469 0L647.9 71.8h.991l.314 3.252c.017.475.051.94.076 1.406h.025c.102-.465.221-.94.322-1.406l.483-1.812h.627l.474 1.812c.093.458.22.932.322 1.406h.034l.076-1.406.297-3.252h.923l-.754 5.598h-1.042l-.491-2.066a15 15 0 0 1-.178-1.034h-.025c-.051.33-.11.695-.187 1.034l-.466 2.066zm5.307-2.447v-.703h3.769v.703zm5.443 2.447v-5.59h1.041l.771 2.186.271.838h.034l.254-.838.771-2.185h1.042v5.59h-.83v-2.516c0-.534.076-1.584.127-2.109h-.034l-.424 1.364-.703 1.753h-.474l-.712-1.753-.423-1.364h-.025c.042.525.127 1.575.127 2.109v2.515zm6.087 0v-5.59h3.532v.822h-2.558v1.448h2.169v.822h-2.169v1.668h2.643v.83zm5.214 0v-5.59h1.042l.771 2.186.271.838h.034l.254-.838.771-2.185h1.041v5.59h-.83v-2.516c0-.534.077-1.584.127-2.109h-.034l-.423 1.364-.703 1.753h-.474l-.712-1.753-.423-1.364h-.026c.043.525.127 1.575.127 2.109v2.515zm5.995 0v-5.59h1.626c1.135 0 1.965.348 1.965 1.373 0 .525-.313 1.041-.966 1.22v.033c.805.136 1.246.56 1.246 1.321 0 1.118-.89 1.643-2.101 1.643zm.974-3.269h.559c.779 0 1.101-.305 1.101-.83 0-.517-.356-.728-1.076-.728h-.584zm0 2.507h.694c.814 0 1.245-.305 1.245-.94 0-.601-.415-.864-1.245-.864h-.694zm4.621.762v-5.59h3.532v.822h-2.558v1.448h2.168v.822h-2.168v1.668h2.643v.83zm5.333 0v-5.59h1.846c1.143 0 2.033.407 2.033 1.652 0 .847-.441 1.364-1.11 1.592l1.33 2.346h-1.101l-1.203-2.193h-.821v2.194zm.974-2.98h.77c.763 0 1.169-.323 1.169-.958 0-.652-.406-.872-1.169-.872h-.77zm6.366 3.082c-.78 0-1.516-.296-2.059-.822l.568-.669c.415.382.965.644 1.508.644.686 0 1.033-.288 1.033-.737 0-.466-.373-.61-.923-.83l-.754-.33c-.593-.229-1.194-.67-1.194-1.482 0-.89.796-1.567 1.922-1.567.686 0 1.322.262 1.779.711l-.508.619c-.373-.305-.754-.483-1.271-.483-.576 0-.931.245-.931.669 0 .44.448.593.948.796l.729.313c.703.288 1.202.695 1.202 1.508 0 .906-.754 1.66-2.049 1.66"/><path stroke="#575e61" stroke-linecap="round" stroke-linejoin="round" stroke-width=".706" d="M595.233 70.31v5.764M600.88 73.192c.779 0 1.411-.645 1.411-1.44 0-.797-.632-1.442-1.411-1.442-.78 0-1.412.645-1.412 1.441s.632 1.441 1.412 1.441M595.233 78.956c.78 0 1.412-.645 1.412-1.44 0-.797-.632-1.442-1.412-1.442s-1.411.645-1.411 1.441.632 1.441 1.411 1.441"/><path stroke="#575e61" stroke-linecap="round" stroke-linejoin="round" stroke-width=".706" d="M600.88 73.192a4.37 4.37 0 0 1-1.24 3.057 4.2 4.2 0 0 1-2.995 1.267"/><path stroke="url(#c)" stroke-linecap="round" stroke-width=".5" d="M468.505 37.89h18.816c7.309 0 14.141 3.63 18.231 9.687l28.099 41.604a30.7 30.7 0 0 0 25.441 13.517h119.139"/><path stroke="url(#d)" stroke-linecap="round" stroke-width=".5" d="M458.018 37.89h35.037a30 30 0 0 1 23.15 10.92l11.87 14.4a32 32 0 0 0 24.693 11.647h7.055"/><rect width="59.5" height="19.5" x="402.768" y="28.25" fill="#191d1e" rx="9.75"/><rect width="59.5" height="19.5" x="402.768" y="28.25" stroke="#172021" stroke-width=".5" rx="9.75"/><path fill="#ededed" d="M429.885 40.5v-5.59h1.042l.77 2.185.271.839h.034l.254-.839.771-2.185h1.042v5.59h-.83v-2.516c0-.533.076-1.583.127-2.108h-.034l-.424 1.363-.702 1.753h-.475l-.711-1.753-.424-1.363h-.025c.042.525.127 1.575.127 2.108V40.5zm5.376 0 1.796-5.59h1.143l1.796 5.59h-1.034l-.432-1.525h-1.838l-.44 1.525zm1.643-2.295h1.415l-.195-.695c-.17-.593-.339-1.22-.5-1.838h-.034a53 53 0 0 1-.491 1.838zm4.401 2.295v-.83h1.33v-3.938h-1.33v-.822h3.651v.822h-1.339v3.938h1.339v.83zm5.417 0v-5.59h.991l1.491 3.168.517 1.185h.025c-.042-.575-.135-1.279-.135-1.897V34.91h.931v5.59h-.999l-1.482-3.176-.517-1.177h-.025c.042.592.135 1.262.135 1.88V40.5z"/><g clip-path="url(#e)"><path stroke="#575e61" stroke-linecap="round" stroke-linejoin="round" stroke-width=".706" d="M416.164 42.693s3.765-1.921 3.765-4.803v-3.362l-3.765-1.442-3.764 1.442v3.362c0 2.882 3.764 4.803 3.764 4.803"/></g></g><defs><linearGradient id="b" x1="607.586" x2="571.442" y1="114.103" y2="102.699" gradientUnits="userSpaceOnUse"><stop stop-color="#fff"/><stop offset="1" stop-color="#fff" stop-opacity="0"/></linearGradient><linearGradient id="c" x1="678.231" x2="515.289" y1="102.698" y2="70.294" gradientUnits="userSpaceOnUse"><stop stop-color="#fff"/><stop offset="1" stop-color="#fff" stop-opacity="0"/></linearGradient><linearGradient id="d" x1="557.42" x2="378.33" y1="74.857" y2="18.021" gradientUnits="userSpaceOnUse"><stop stop-color="#fff"/><stop offset="1" stop-color="#53595c"/></linearGradient><clipPath id="a"><path fill="#fff" d="M.518 0h764v208h-764z"/></clipPath><clipPath id="e"><path fill="#fff" d="M410.518 32.126h11.293v11.528h-11.293z"/></clipPath></defs></svg>
